!!!!SEGMENT: pl-wtm--r-704-m--002_moniuszko-stanislaw--widma-no-1-ciemno-wszedzie.krn
!!!cenid: 18xx:3058
!!!COM: Moniuszko, Stanisław
!!!COM-rismID:
!!!CDT: 1819/05/05-1872/06/04
!!!CNT: Polish
!!!GTL: Widma
!!!OTL: No. 1 – Ciemno wszędzie
!!!OMV: 002
!!!PDT: 1852
!!!AGN: Secular
!!!SMS-siglum: PL-Wtm
!!!SMS-shelfmark: R 704/M
!!!SMS-shelfwork: G
!!!SMS-variant:
!!!SMS-altvar:
!!!NIFC-rismSourceID: 1001093778
!!!NIFC-islandoraID:
!!!URL-pdf-islandora:
!!!URL-scan:
!!!ONB-nifc: UWAGA: skany 0005 (prawa strona) – 0007 (z Allo fortepianowym). Następna część: Lento-Guślarz („Naprzód wy”). Nie wpisywać tekstu rosyjskiego i samodzielnych dialogów poza krótkimi didaskaliami.
!!!OMD: Lento.
!!!AIN: 1 alto 2 empty 2 forte 1 soprn 1 tenor
!!!key:
**kern	**kern	**text	**text	**dynam	**kern	**text	**dynam	**kern	**text	**text	**dynam	**kern	**text	**text	**dynam	**kern	**text	**text	**dynam	**kern	**text	**text	**dynam
*	*	*	*color:red	*	*	*	*	*	*	*color:red	*	*	*	*color:red	*	*	*	*color:red	*	*	*	*color:red	*
*group3	*group3	*	*	*	*group2	*	*	*group2	*	*	*	*group2	*	*	*	*group2	*	*	*	*group1	*	*	*
*part7	*part6	*part6	*part6	*part6	*part5	*part5	*part5	*part4	*part4	*part4	*part4	*part3	*part3	*part3	*part3	*part2	*part2	*part2	*part2	*part1	*part1	*part1	*part1
*staff7	*staff6	*	*	*	*staff5	*staff5	*	*staff4	*staff4	*staff4	*	*staff3	*staff3	*staff3	*	*staff2	*staff2	*staff2	*	*staff1	*staff1	*staff1	*
*	*	*	*	*	*	*	*	*	*	*	*	*I""Chór.	*	*	*	*	*	*	*	*	*	*	*
*Iforte	*Iforte	*	*	*	*Iempty	*	*	*Itenor	*	*	*	*Ialto	*	*	*	*Isoprn	*	*	*	*Iempty	*	*	*
*I"Forte-piano	*I"Forte-piano	*	*	*	*I"[Basso]	*	*	*I"[Tenore]	*	*	*	*I"[Alto]	*	*	*	*I"[Soprano]	*	*	*	*I"Guślarz.	*	*	*
*clefF4	*clefG2	*	*	*	*clefF4	*	*	*clefGv2	*	*	*	*clefG2	*	*	*	*clefG2	*	*	*	*clefF4	*	*	*
*k[b-]	*k[b-]	*	*	*	*k[b-]	*	*	*k[b-]	*	*	*	*k[b-]	*	*	*	*k[b-]	*	*	*	*k[b-]	*	*	*
*d:	*d:	*	*	*	*d:	*	*	*d:	*	*	*	*d:	*	*	*	*d:	*	*	*	*d:	*	*	*
*M4/4	*M4/4	*	*	*	*M4/4	*	*	*M4/4	*	*	*	*M4/4	*	*	*	*M4/4	*	*	*	*M4/4	*	*	*
*met(c)	*met(c)	*	*	*	*met(c)	*	*	*met(c)	*	*	*	*met(c)	*	*	*	*met(c)	*	*	*	*met(c)	*	*	*
*kcancel	*kcancel	*	*	*	*kcancel	*	*	*kcancel	*	*	*	*kcancel	*	*	*	*kcancel	*	*	*	*kcancel	*	*	*
!	!	!	!	!	!	!	!	!	!	!	!	!	!	!	!	!	!	!	!LO:DY:a:B:t=p.	!	!	!	!
4r	4r	.	.	.	4r	.	.	4r	.	.	.	4r	.	.	.	8d/	Cie-	Nel	p	4r	.	.	.
.	.	.	.	.	.	.	.	.	.	.	.	.	.	.	.	8e/	-mno	si-	.	.	.	.	.
=1	=1	=1	=1	=1	=1	=1	=1	=1	=1	=1	=1	=1	=1	=1	=1	=1	=1	=1	=1	=1	=1	=1	=1
1r	1r	.	.	.	1r	.	.	1r	.	.	.	1r	.	.	.	2f/	wszę-	-len-	.	1r	.	.	.
.	.	.	.	.	.	.	.	.	.	.	.	.	.	.	.	8f/	-dzie,	-te	.	.	.	.	.
.	.	.	.	.	.	.	.	.	.	.	.	.	.	.	.	8r	.	.	.	.	.	.	.
.	.	.	.	.	.	.	.	.	.	.	.	.	.	.	.	8.g/	głu-	te-	.	.	.	.	.
.	.	.	.	.	.	.	.	.	.	.	.	.	.	.	.	16f/	-cho	-ne-	.	.	.	.	.
=2	=2	=2	=2	=2	=2	=2	=2	=2	=2	=2	=2	=2	=2	=2	=2	=2	=2	=2	=2	=2	=2	=2	=2
1r	1r	.	.	.	1r	.	.	1r	.	.	.	1r	.	.	.	2e/	wszę-	-bro-	.	1r	.	.	.
.	.	.	.	.	.	.	.	.	.	.	.	.	.	.	.	8e/	-dzie,	-re	.	.	.	.	.
.	.	.	.	.	.	.	.	.	.	.	.	.	.	.	.	8r	.	.	.	.	.	.	.
.	.	.	.	.	.	.	.	.	.	.	.	.	.	.	.	8.a/	co	qua	.	.	.	.	.
.	.	.	.	.	.	.	.	.	.	.	.	.	.	.	.	16a/	to	li ar-	.	.	.	.	.
=3	=3	=3	=3	=3	=3	=3	=3	=3	=3	=3	=3	=3	=3	=3	=3	=3	=3	=3	=3	=3	=3	=3	=3
2r	1r	.	.	.	2r	.	.	2r	.	.	.	2r	.	.	.	[>1d	bę-	-ca-	.	1r	.	.	.
!	!	!	!	!LO:DY:rj:t=pp.	!	!	!LO:DY:a:rj:t=pp.	!	!	!	!LO:DY:a:rj:t=pp.	!	!	!	!LO:DY:a:rj:t=pp.	!	!	!	!	!	!	!	!
4..GG/	.	.	.	pp	4..GG/ 4..BB-	Co	pp	4..D/ 4..G	Co	.	pp	4..B-/	Co	qua	pp	.	.	.	.	.	.	.	.
16DD/	.	.	.	.	16D/	to	.	16F/	to	.	.	16A/	to	li ar-	.	.	.	.	.	.	.	.	.
=4	=4	=4	=4	=4	=4	=4	=4	=4	=4	=4	=4	=4	=4	=4	=4	=4	=4	=4	=4	=4	=4	=4	=4
!LO:TX:t=P:problem=brak początku łuku i ligatury	!LO:TX:t=P:problem=brak początku ligatury	!	!	!	!	!	!	!	!	!	!	!	!	!	!	!	!	!	!	!	!	!	!
[<1DD N(<1F	[>1A [>1d	.	.	.	1D	bę-	.	1F	bę-	.	.	1A	bę-	-ca-	.	1d]	.	.	.	2r	.	.	.
.	.	.	.	.	.	.	.	.	.	.	.	.	.	.	.	.	.	.	.	4r	.	.	.
.	.	.	.	.	.	.	.	.	.	.	.	.	.	.	.	.	.	.	.	4A\	Czys-	Voi,	.
!!LO:LB:g=original
=5	=5	=5	=5	=5	=5	=5	=5	=5	=5	=5	=5	=5	=5	=5	=5	=5	=5	=5	=5	=5	=5	=5	=5
*	*	*	*	*	*	*	*	*	*	*	*	*	*	*	*	*	*	*	*	*2\right	*	*	*
1DD_< 1A_>	1d_< [>1fN)	.	.	.	4D\	-dzie?	.	4d/	-dzie?	.	.	4d/	-dzie?	ni	.	4d/	-dzie	-ni	.	2d\	-co-	al-	.
.	.	.	.	.	4r	.	.	4r	.	.	.	4r	.	.	.	4r	.	.	.	.	.	.	.
.	.	.	.	.	2r	.	.	2r	.	.	.	2r	.	.	.	2r	.	.	.	4.d\	-we	-me	.
.	.	.	.	.	.	.	.	.	.	.	.	.	.	.	.	.	.	.	.	8d\	du-	sof-	.
=6	=6	=6	=6	=6	=6	=6	=6	=6	=6	=6	=6	=6	=6	=6	=6	=6	=6	=6	=6	=6	=6	=6	=6
!	!	!	!	!	!	!	!	!	!	!	!	!	!	!	!	!	!	!	!	!	!	!	!LO:HP:a
1DD_< [>1D 1A_>	1d_< 1f_>	.	.	.	1r	.	.	1r	.	.	.	1r	.	.	.	1r	.	.	.	2d\	-sze-	-fren-	>
.	.	.	.	.	.	.	.	.	.	.	.	.	.	.	.	.	.	.	.	8d\	-czki!	-ti	]
.	.	.	.	.	.	.	.	.	.	.	.	.	.	.	.	.	.	.	.	8r	.	.	.
.	.	.	.	.	.	.	.	.	.	.	.	.	.	.	.	.	.	.	.	8A\	w ja-	qual	.
.	.	.	.	.	.	.	.	.	.	.	.	.	.	.	.	.	.	.	.	8A\	-kiéj-	men	.
=7	=7	=7	=7	=7	=7	=7	=7	=7	=7	=7	=7	=7	=7	=7	=7	=7	=7	=7	=7	=7	=7	=7	=7
1DD] 1D] 1A]	1d] 1f]	.	.	.	1r	.	.	1r	.	.	.	1r	.	.	.	1r	.	.	.	4.d\	-kol-	sia	.
.	.	.	.	.	.	.	.	.	.	.	.	.	.	.	.	.	.	.	.	8d\	-wiek	la	.
.	.	.	.	.	.	.	.	.	.	.	.	.	.	.	.	.	.	.	.	4.d\	swia-	vo-	.
.	.	.	.	.	.	.	.	.	.	.	.	.	.	.	.	.	.	.	.	8d\	-ta	-stra	.
=8	=8	=8	=8	=8	=8	=8	=8	=8	=8	=8	=8	=8	=8	=8	=8	=8	=8	=8	=8	=8	=8	=8	=8
1EE 1E 1G	1c 1g	.	.	.	1r	.	.	1r	.	.	.	1r	.	.	.	1r	.	.	.	2c\	stro-	se-	.
.	.	.	.	.	.	.	.	.	.	.	.	.	.	.	.	.	.	.	.	8c\	-nie;	-de!	.
.	.	.	.	.	.	.	.	.	.	.	.	.	.	.	.	.	.	.	.	8r	.	.	.
.	.	.	.	.	.	.	.	.	.	.	.	.	.	.	.	.	.	.	.	8c\	czy-	s'an-	.
.	.	.	.	.	.	.	.	.	.	.	.	.	.	.	.	.	.	.	.	8c\	-li	-no il	.
=9	=9	=9	=9	=9	=9	=9	=9	=9	=9	=9	=9	=9	=9	=9	=9	=9	=9	=9	=9	=9	=9	=9	=9
!	!LO:TX:a:t=V&colon;S&colon;	!	!	!	!	!	!	!	!	!	!	!	!	!	!	!LO:TX:b:t=Un poco piu mosso:color=blue	!	!	!	!	!	!	!
1EE [>1C 1G	[<1c	.	.	.	1r	.	.	1r	.	.	.	1r	.	.	.	1r	.	.	.	4.c\	któ-	fuo-	.
.	.	.	.	.	.	.	.	.	.	.	.	.	.	.	.	.	.	.	.	8c\	-ra	-co	.
.	.	.	.	.	.	.	.	.	.	.	.	.	.	.	.	.	.	.	.	4.c\	w smo-	vi	.
!	!	!	!	!	!	!	!	!	!	!	!	!	!	!	!	!	!	!	!	!LO:TX:a:t=V&colon;S&colon;	!	!	!
.	.	.	.	.	.	.	.	.	.	.	.	.	.	.	.	.	.	.	.	8c\	-le	pos-	.
!!LO:PB:g=original
=10	=10	=10	=10	=10	=10	=10	=10	=10	=10	=10	=10	=10	=10	=10	=10	=10	=10	=10	=10	=10	=10	=10	=10
1FF 1C_< 1A-X	(<16c/LL]	.	.	.	1r	.	.	1r	.	.	.	1r	.	.	.	1r	.	.	.	2c\	pło-	-te-	.
.	16d-X/	.	.	.	.	.	.	.	.	.	.	.	.	.	.	.	.	.	.	.	.	.	.
.	16c/	.	.	.	.	.	.	.	.	.	.	.	.	.	.	.	.	.	.	.	.	.	.
.	16Bn/JJ	.	.	.	.	.	.	.	.	.	.	.	.	.	.	.	.	.	.	.	.	.	.
*	*rep	*	*	*	*	*	*	*	*	*	*	*	*	*	*	*	*	*	*	*	*	*	*
.	16c/LL	.	.	.	.	.	.	.	.	.	.	.	.	.	.	.	.	.	.	.	.	.	.
.	16d-/	.	.	.	.	.	.	.	.	.	.	.	.	.	.	.	.	.	.	.	.	.	.
.	16c/	.	.	.	.	.	.	.	.	.	.	.	.	.	.	.	.	.	.	.	.	.	.
.	16B/JJ	.	.	.	.	.	.	.	.	.	.	.	.	.	.	.	.	.	.	.	.	.	.
*	*Xrep	*	*	*	*	*	*	*	*	*	*	*	*	*	*	*	*	*	*	*	*	*	*
*	*rep	*	*	*	*	*	*	*	*	*	*	*	*	*	*	*	*	*	*	*	*	*	*
.	16c/LL	.	.	.	.	.	.	.	.	.	.	.	.	.	.	.	.	.	.	4c\	-nie,	-de	.
.	16d-/	.	.	.	.	.	.	.	.	.	.	.	.	.	.	.	.	.	.	.	.	.	.
.	16c/	.	.	.	.	.	.	.	.	.	.	.	.	.	.	.	.	.	.	.	.	.	.
.	16B/JJ	.	.	.	.	.	.	.	.	.	.	.	.	.	.	.	.	.	.	.	.	.	.
*	*Xrep	*	*	*	*	*	*	*	*	*	*	*	*	*	*	*	*	*	*	*	*	*	*
*	*rep	*	*	*	*	*	*	*	*	*	*	*	*	*	*	*	*	*	*	*	*	*	*
.	16c/LL	.	.	.	.	.	.	.	.	.	.	.	.	.	.	.	.	.	.	8c\	czy-	o'l	.
.	16d-/	.	.	.	.	.	.	.	.	.	.	.	.	.	.	.	.	.	.	.	.	.	.
.	16c/	.	.	.	.	.	.	.	.	.	.	.	.	.	.	.	.	.	.	8c\	-li	ri-	.
.	16B/JJ)	.	.	.	.	.	.	.	.	.	.	.	.	.	.	.	.	.	.	.	.	.	.
*	*Xrep	*	*	*	*	*	*	*	*	*	*	*	*	*	*	*	*	*	*	*	*	*	*
=11	=11	=11	=11	=11	=11	=11	=11	=11	=11	=11	=11	=11	=11	=11	=11	=11	=11	=11	=11	=11	=11	=11	=11
(<1EE 1C_> 1G	[<1c	.	.	.	1r	.	.	1r	.	.	.	1r	.	.	.	1r	.	.	.	4.c\	mar-	-gor-	.
.	.	.	.	.	.	.	.	.	.	.	.	.	.	.	.	.	.	.	.	8c\	-znie	-di	.
.	.	.	.	.	.	.	.	.	.	.	.	.	.	.	.	.	.	.	.	4.c\	na	gliac-	.
.	.	.	.	.	.	.	.	.	.	.	.	.	.	.	.	.	.	.	.	8c\	dnie	-cial-	.
=12	=12	=12	=12	=12	=12	=12	=12	=12	=12	=12	=12	=12	=12	=12	=12	=12	=12	=12	=12	=12	=12	=12	=12
*^	*	*	*	*	*	*	*	*	*	*	*	*	*	*	*	*	*	*	*	*	*	*	*
*2\right	*	*	*	*	*	*	*	*	*	*	*	*	*	*	*	*	*	*	*	*	*	*	*	*
2A-X/	2FF\) 2C]	(<16c/LL]	.	.	.	1r	.	.	1r	.	.	.	1r	.	.	.	1r	.	.	.	2c\	rzecz-	-gen-	.
.	.	16d-X/	.	.	.	.	.	.	.	.	.	.	.	.	.	.	.	.	.	.	.	.	.	.
.	.	16c/	.	.	.	.	.	.	.	.	.	.	.	.	.	.	.	.	.	.	.	.	.	.
.	.	16Bn/JJ	.	.	.	.	.	.	.	.	.	.	.	.	.	.	.	.	.	.	.	.	.	.
.	.	16c/LL	.	.	.	.	.	.	.	.	.	.	.	.	.	.	.	.	.	.	.	.	.	.
.	.	16d-/	.	.	.	.	.	.	.	.	.	.	.	.	.	.	.	.	.	.	.	.	.	.
.	.	16c/	.	.	.	.	.	.	.	.	.	.	.	.	.	.	.	.	.	.	.	.	.	.
.	.	16B/JJ	.	.	.	.	.	.	.	.	.	.	.	.	.	.	.	.	.	.	.	.	.	.
2r	2ryy	16c</LL	.	.	.	.	.	.	.	.	.	.	.	.	.	.	.	.	.	.	8c\	-ki,	-ti;	.
.	.	16B-X</	.	.	.	.	.	.	.	.	.	.	.	.	.	.	.	.	.	.	.	.	.	.
.	.	16A-X</	.	.	.	.	.	.	.	.	.	.	.	.	.	.	.	.	.	.	8r	.	.	.
.	.	16G</JJ	.	.	.	.	.	.	.	.	.	.	.	.	.	.	.	.	.	.	.	.	.	.
.	.	16A-</LL	.	.	.	.	.	.	.	.	.	.	.	.	.	.	.	.	.	.	8.c\	czy-	quel-	.
.	.	16G</	.	.	.	.	.	.	.	.	.	.	.	.	.	.	.	.	.	.	.	.	.	.
.	.	16F</	.	.	.	.	.	.	.	.	.	.	.	.	.	.	.	.	.	.	.	.	.	.
.	.	16E-X</JJ)	.	.	.	.	.	.	.	.	.	.	.	.	.	.	.	.	.	.	16c\	-li	-la	.
*v	*v	*	*	*	*	*	*	*	*	*	*	*	*	*	*	*	*	*	*	*	*	*	*	*
=13	=13	=13	=13	=13	=13	=13	=13	=13	=13	=13	=13	=13	=13	=13	=13	=13	=13	=13	=13	=13	=13	=13	=13
1AA 1D 1F#X	1c<	.	.	.	1r	.	.	1r	.	.	.	1r	.	.	.	1r	.	.	.	4.F#X\	dla	piu	.
.	.	.	.	.	.	.	.	.	.	.	.	.	.	.	.	.	.	.	.	8F#\	dot-	che	.
.	.	.	.	.	.	.	.	.	.	.	.	.	.	.	.	.	.	.	.	4.F#\	-kliw-	fu	.
.	.	.	.	.	.	.	.	.	.	.	.	.	.	.	.	.	.	.	.	8F#\	-szej	del	.
!!LO:LB:g=original
=14	=14	=14	=14	=14	=14	=14	=14	=14	=14	=14	=14	=14	=14	=14	=14	=14	=14	=14	=14	=14	=14	=14	=14
1GG 1G 1B-	(<16D</LL	.	.	.	1ryy	.	.	1ryy	.	.	.	1ryy	.	.	.	1ryy	.	.	.	2G\	ka-	quer-	.
.	16E-X</	.	.	.	.	.	.	.	.	.	.	.	.	.	.	.	.	.	.	.	.	.	.
.	16D</	.	.	.	.	.	.	.	.	.	.	.	.	.	.	.	.	.	.	.	.	.	.
.	16C#X</JJ	.	.	.	.	.	.	.	.	.	.	.	.	.	.	.	.	.	.	.	.	.	.
*	*rep	*	*	*	*	*	*	*	*	*	*	*	*	*	*	*	*	*	*	*	*	*	*
.	16D</LL	.	.	.	.	.	.	.	.	.	.	.	.	.	.	.	.	.	.	.	.	.	.
.	16E-</	.	.	.	.	.	.	.	.	.	.	.	.	.	.	.	.	.	.	.	.	.	.
.	16D</	.	.	.	.	.	.	.	.	.	.	.	.	.	.	.	.	.	.	.	.	.	.
.	16C#</JJ	.	.	.	.	.	.	.	.	.	.	.	.	.	.	.	.	.	.	.	.	.	.
*	*Xrep	*	*	*	*	*	*	*	*	*	*	*	*	*	*	*	*	*	*	*	*	*	*
*	*rep	*	*	*	*	*	*	*	*	*	*	*	*	*	*	*	*	*	*	*	*	*	*
.	16D</LL	.	.	.	.	.	.	.	.	.	.	.	.	.	.	.	.	.	.	8G\	-ry	-ce	.
.	16E-</	.	.	.	.	.	.	.	.	.	.	.	.	.	.	.	.	.	.	.	.	.	.
.	16D</	.	.	.	.	.	.	.	.	.	.	.	.	.	.	.	.	.	.	8r	.	.	.
.	16C#</JJ	.	.	.	.	.	.	.	.	.	.	.	.	.	.	.	.	.	.	.	.	.	.
*	*Xrep	*	*	*	*	*	*	*	*	*	*	*	*	*	*	*	*	*	*	*	*	*	*
*	*rep	*	*	*	*	*	*	*	*	*	*	*	*	*	*	*	*	*	*	*	*	*	*
.	16D</LL	.	.	.	.	.	.	.	.	.	.	.	.	.	.	.	.	.	.	8r	.	.	.
.	16E-</	.	.	.	.	.	.	.	.	.	.	.	.	.	.	.	.	.	.	.	.	.	.
.	16D</	.	.	.	.	.	.	.	.	.	.	.	.	.	.	.	.	.	.	8c\	w su-	fra le	.
.	16C#</JJ)	.	.	.	.	.	.	.	.	.	.	.	.	.	.	.	.	.	.	.	.	.	.
*	*Xrep	*	*	*	*	*	*	*	*	*	*	*	*	*	*	*	*	*	*	*	*	*	*
=15	=15	=15	=15	=15	=15	=15	=15	=15	=15	=15	=15	=15	=15	=15	=15	=15	=15	=15	=15	=15	=15	=15	=15
(>2AA-X\	[1D< 1F#X< 1c<	.	.	.	1ryy	.	.	1ryy	.	.	.	1ryy	.	.	.	1ryy	.	.	.	4c\	-ro-	fi-	.
.	.	.	.	.	.	.	.	.	.	.	.	.	.	.	.	.	.	.	.	8F#X\	-wém	.	.
!	!	!	!	!	!	!	!	!	!	!	!	!	!	!	!	!	!	!	!	!LO:ACC:color=blue	!	!	!
.	.	.	.	.	.	.	.	.	.	.	.	.	.	.	.	.	.	.	.	8F#X\	wszcze-	-bre im-	.
4AAn\	.	.	.	.	.	.	.	.	.	.	.	.	.	.	.	.	.	.	.	4F#\	-pio-	-pri-	.
4DD\)	.	.	.	.	.	.	.	.	.	.	.	.	.	.	.	.	.	.	.	4F#\	-na	-gio-	.
=16	=16	=16	=16	=16	=16	=16	=16	=16	=16	=16	=16	=16	=16	=16	=16	=16	=16	=16	=16	=16	=16	=16	=16
4GG/	(<16D</LL] 16B-<	.	.	.	1ryy	.	.	1ryy	.	.	.	1ryy	.	.	.	1ryy	.	.	.	2G\	drew-	-na-	.
.	16G</	.	.	.	.	.	.	.	.	.	.	.	.	.	.	.	.	.	.	.	.	.	.
.	16D</	.	.	.	.	.	.	.	.	.	.	.	.	.	.	.	.	.	.	.	.	.	.
.	16C</JJ	.	.	.	.	.	.	.	.	.	.	.	.	.	.	.	.	.	.	.	.	.	.
4r	16BB-</LL	.	.	.	.	.	.	.	.	.	.	.	.	.	.	.	.	.	.	.	.	.	.
.	16AA</	.	.	.	.	.	.	.	.	.	.	.	.	.	.	.	.	.	.	.	.	.	.
.	16GG</	.	.	.	.	.	.	.	.	.	.	.	.	.	.	.	.	.	.	.	.	.	.
.	16AA</JJ	.	.	.	.	.	.	.	.	.	.	.	.	.	.	.	.	.	.	.	.	.	.
2r	16BB-</LL	.	.	.	.	.	.	.	.	.	.	.	.	.	.	.	.	.	.	8G\	-nie,	-ta,	.
.	16C</	.	.	.	.	.	.	.	.	.	.	.	.	.	.	.	.	.	.	.	.	.	.
.	16D</	.	.	.	.	.	.	.	.	.	.	.	.	.	.	.	.	.	.	8r	.	.	.
.	16E</JJ	.	.	.	.	.	.	.	.	.	.	.	.	.	.	.	.	.	.	.	.	.	.
.	16F#X</LL	.	.	.	.	.	.	.	.	.	.	.	.	.	.	.	.	.	.	8B-\	gdy	sull'	.
.	16G</	.	.	.	.	.	.	.	.	.	.	.	.	.	.	.	.	.	.	.	.	.	.
.	16A</	.	.	.	.	.	.	.	.	.	.	.	.	.	.	.	.	.	.	8B-\	ją	a-	.
.	16B-</JJ)	.	.	.	.	.	.	.	.	.	.	.	.	.	.	.	.	.	.	.	.	.	.
!!LO:LB:g=original
=17	=17	=17	=17	=17	=17	=17	=17	=17	=17	=17	=17	=17	=17	=17	=17	=17	=17	=17	=17	=17	=17	=17	=17
*^	*^	*	*	*	*	*	*	*	*	*	*	*	*	*	*	*	*	*	*	*	*	*	*
4A/	4FF\	2d/	2.ryy	.	.	.	1ryy	.	.	1ryy	.	.	.	1ryy	.	.	.	1ryy	.	.	.	4A\	w pie-	-lar	.
8.B-/L	4GG\	.	.	.	.	.	.	.	.	.	.	.	.	.	.	.	.	.	.	.	.	4D\	-cu	dal	.
16B-/Jk	.	.	.	.	.	.	.	.	.	.	.	.	.	.	.	.	.	.	.	.	.	.	.	.	.
4A/	4AA\	4d/ 4f	.	.	.	.	.	.	.	.	.	.	.	.	.	.	.	.	.	.	.	4F\	gry-	fuo-	.
4A/	4A\	8.e/L	4c#X\	.	.	.	.	.	.	.	.	.	.	.	.	.	.	.	.	.	.	4E\	-zą	-co av-	.
.	.	16e/Jk	.	.	.	.	.	.	.	.	.	.	.	.	.	.	.	.	.	.	.	.	.	.	.
*v	*v	*	*	*	*	*	*	*	*	*	*	*	*	*	*	*	*	*	*	*	*	*	*	*	*
*	*v	*v	*	*	*	*	*	*	*	*	*	*	*	*	*	*	*	*	*	*	*	*	*	*
=18	=18	=18	=18	=18	=18	=18	=18	=18	=18	=18	=18	=18	=18	=18	=18	=18	=18	=18	=18	=18	=18	=18	=18
2.B-\	(<16d^</LL	.	.	.	1ryy	.	.	1ryy	.	.	.	1ryy	.	.	.	1ryy	.	.	.	(>4..G\	ża-	-vol-	.
.	16g/	.	.	.	.	.	.	.	.	.	.	.	.	.	.	.	.	.	.	.	.	.	.
.	16d/	.	.	.	.	.	.	.	.	.	.	.	.	.	.	.	.	.	.	.	.	.	.
.	16c/JJ	.	.	.	.	.	.	.	.	.	.	.	.	.	.	.	.	.	.	.	.	.	.
.	16B-/LL	.	.	.	.	.	.	.	.	.	.	.	.	.	.	.	.	.	.	.	.	.	.
.	16A/	.	.	.	.	.	.	.	.	.	.	.	.	.	.	.	.	.	.	.	.	.	.
.	16G/	.	.	.	.	.	.	.	.	.	.	.	.	.	.	.	.	.	.	.	.	.	.
.	16A/JJ	.	.	.	.	.	.	.	.	.	.	.	.	.	.	.	.	.	.	32F\LLL	.	.	.
.	.	.	.	.	.	.	.	.	.	.	.	.	.	.	.	.	.	.	.	32E\JJJ	.	.	.
.	16B-/LL	.	.	.	.	.	.	.	.	.	.	.	.	.	.	.	.	.	.	8D\)	-ry,	-ta,	.
.	16d/	.	.	.	.	.	.	.	.	.	.	.	.	.	.	.	.	.	.	.	.	.	.
.	16g/	.	.	.	.	.	.	.	.	.	.	.	.	.	.	.	.	.	.	8r	.	.	.
.	16b-/JJ	.	.	.	.	.	.	.	.	.	.	.	.	.	.	.	.	.	.	.	.	.	.
8.A\L 8.c#X	16a/LL	.	.	.	.	.	.	.	.	.	.	.	.	.	.	.	.	.	.	4E\	i	e	.
.	16g/	.	.	.	.	.	.	.	.	.	.	.	.	.	.	.	.	.	.	.	.	.	.
.	16f/	.	.	.	.	.	.	.	.	.	.	.	.	.	.	.	.	.	.	.	.	.	.
16A\Jk 16c#	16e/JJ)	.	.	.	.	.	.	.	.	.	.	.	.	.	.	.	.	.	.	.	.	.	.
=19	=19	=19	=19	=19	=19	=19	=19	=19	=19	=19	=19	=19	=19	=19	=19	=19	=19	=19	=19	=19	=19	=19	=19
*	*^	*	*	*	*	*	*	*	*	*	*	*	*	*	*	*	*	*	*	*	*	*	*
2.B-\	(<16d^</LL	2.rcyy	.	.	.	1ryy	.	.	1ryy	.	.	.	1ryy	.	.	.	1ryy	.	.	.	(>4..G\	pisz-	pian-	.
.	16g/	.	.	.	.	.	.	.	.	.	.	.	.	.	.	.	.	.	.	.	.	.	.	.
.	16d/	.	.	.	.	.	.	.	.	.	.	.	.	.	.	.	.	.	.	.	.	.	.	.
.	16c/JJ	.	.	.	.	.	.	.	.	.	.	.	.	.	.	.	.	.	.	.	.	.	.	.
.	16B-/LL	.	.	.	.	.	.	.	.	.	.	.	.	.	.	.	.	.	.	.	.	.	.	.
.	16A/	.	.	.	.	.	.	.	.	.	.	.	.	.	.	.	.	.	.	.	.	.	.	.
.	16G/	.	.	.	.	.	.	.	.	.	.	.	.	.	.	.	.	.	.	.	.	.	.	.
.	16A/JJ	.	.	.	.	.	.	.	.	.	.	.	.	.	.	.	.	.	.	.	32F\LLL	.	.	.
.	.	.	.	.	.	.	.	.	.	.	.	.	.	.	.	.	.	.	.	.	32E\JJJ	.	.	.
.	16B-/LL	.	.	.	.	.	.	.	.	.	.	.	.	.	.	.	.	.	.	.	8D\)	-czy,	-ge,	.
.	16d/	.	.	.	.	.	.	.	.	.	.	.	.	.	.	.	.	.	.	.	.	.	.	.
.	16g/	.	.	.	.	.	.	.	.	.	.	.	.	.	.	.	.	.	.	.	8r	.	.	.
.	16b-/JJ	.	.	.	.	.	.	.	.	.	.	.	.	.	.	.	.	.	.	.	.	.	.	.
8.F\L 8.cn	16e-X/LL	(<4e-\	.	.	.	.	.	.	.	.	.	.	.	.	.	.	.	.	.	.	4F\	i	e	.
.	16f/	.	.	.	.	.	.	.	.	.	.	.	.	.	.	.	.	.	.	.	.	.	.	.
.	16a/	.	.	.	.	.	.	.	.	.	.	.	.	.	.	.	.	.	.	.	.	.	.	.
16F\Jk 16c	16cc/JJ)	.	.	.	.	.	.	.	.	.	.	.	.	.	.	.	.	.	.	.	.	.	.	.
!!LO:LB:g=original
=20	=20	=20	=20	=20	=20	=20	=20	=20	=20	=20	=20	=20	=20	=20	=20	=20	=20	=20	=20	=20	=20	=20	=20	=20
!	!	!LO:TX:t=P:problem=brak zakończenia łuku	!	!	!	!	!	!	!	!	!	!	!	!	!	!	!	!	!	!	!	!	!	!
2.BB-\ 2.F 2.B-	16b-/LL	[<4d\)	.	.	.	1ryy	.	.	1ryy	.	.	.	1ryy	.	.	.	1ryy	.	.	.	(>2B-\	pła-	ge-	.
.	16dd/	.	.	.	.	.	.	.	.	.	.	.	.	.	.	.	.	.	.	.	.	.	.	.
.	16b-/	.	.	.	.	.	.	.	.	.	.	.	.	.	.	.	.	.	.	.	.	.	.	.
.	16g/JJ	.	.	.	.	.	.	.	.	.	.	.	.	.	.	.	.	.	.	.	.	.	.	.
.	16f/LL	8d\]	.	.	.	.	.	.	.	.	.	.	.	.	.	.	.	.	.	.	.	.	.	.
.	16e-X/	.	.	.	.	.	.	.	.	.	.	.	.	.	.	.	.	.	.	.	.	.	.	.
.	16d/	8r	.	.	.	.	.	.	.	.	.	.	.	.	.	.	.	.	.	.	.	.	.	.
.	16c/JJ	.	.	.	.	.	.	.	.	.	.	.	.	.	.	.	.	.	.	.	.	.	.	.
.	16d/LL	4ryy	.	.	.	.	.	.	.	.	.	.	.	.	.	.	.	.	.	.	8F\)	-cze,	-me	.
.	16f/	.	.	.	.	.	.	.	.	.	.	.	.	.	.	.	.	.	.	.	.	.	.	.
.	16b-/	.	.	.	.	.	.	.	.	.	.	.	.	.	.	.	.	.	.	.	8r	.	.	.
.	16d/JJ	.	.	.	.	.	.	.	.	.	.	.	.	.	.	.	.	.	.	.	.	.	.	.
8.F\L 8.c	16e-/LL	4e-\	.	.	.	.	.	.	.	.	.	.	.	.	.	.	.	.	.	.	8.F\	pła-	di-	.
.	16f/	.	.	.	.	.	.	.	.	.	.	.	.	.	.	.	.	.	.	.	.	.	.	.
.	16a/	.	.	.	.	.	.	.	.	.	.	.	.	.	.	.	.	.	.	.	.	.	.	.
16F\Jk 16c	16cc/JJ	.	.	.	.	.	.	.	.	.	.	.	.	.	.	.	.	.	.	.	16F\	-cze	-spe-	.
=21	=21	=21	=21	=21	=21	=21	=21	=21	=21	=21	=21	=21	=21	=21	=21	=21	=21	=21	=21	=21	=21	=21	=21	=21
4B-\	(<16b-/LL	4d\	.	.	.	1ryy	.	.	1ryy	.	.	.	1ryy	.	.	.	1ryy	.	.	.	(>2B-\	rzew-	-ra-	.
.	16dd/	.	.	.	.	.	.	.	.	.	.	.	.	.	.	.	.	.	.	.	.	.	.	.
.	16b-/	.	.	.	.	.	.	.	.	.	.	.	.	.	.	.	.	.	.	.	.	.	.	.
.	16g/JJ	.	.	.	.	.	.	.	.	.	.	.	.	.	.	.	.	.	.	.	.	.	.	.
4r	16f/LL	4ryy	.	.	.	.	.	.	.	.	.	.	.	.	.	.	.	.	.	.	.	.	.	.
.	16b-/	.	.	.	.	.	.	.	.	.	.	.	.	.	.	.	.	.	.	.	.	.	.	.
.	16f/	.	.	.	.	.	.	.	.	.	.	.	.	.	.	.	.	.	.	.	.	.	.	.
.	16e-X/JJ	.	.	.	.	.	.	.	.	.	.	.	.	.	.	.	.	.	.	.	.	.	.	.
2r	16d/LL	2ryy	.	.	.	.	.	.	.	.	.	.	.	.	.	.	.	.	.	.	8F\)	-nie;	-ta.	.
.	16f/	.	.	.	.	.	.	.	.	.	.	.	.	.	.	.	.	.	.	.	.	.	.	.
.	16d/	.	.	.	.	.	.	.	.	.	.	.	.	.	.	.	.	.	.	.	8r	.	.	.
.	16c/JJ	.	.	.	.	.	.	.	.	.	.	.	.	.	.	.	.	.	.	.	.	.	.	.
.	16B-</LL	.	.	.	.	.	.	.	.	.	.	.	.	.	.	.	.	.	.	.	8B-\	każ-	Tutte	.
.	16A</	.	.	.	.	.	.	.	.	.	.	.	.	.	.	.	.	.	.	.	.	.	.	.
.	16G</	.	.	.	.	.	.	.	.	.	.	.	.	.	.	.	.	.	.	.	8B-\	-da	a	.
.	16F#X</JJ)	.	.	.	.	.	.	.	.	.	.	.	.	.	.	.	.	.	.	.	.	.	.	.
*	*v	*v	*	*	*	*	*	*	*	*	*	*	*	*	*	*	*	*	*	*	*	*	*	*
=22	=22	=22	=22	=22	=22	=22	=22	=22	=22	=22	=22	=22	=22	=22	=22	=22	=22	=22	=22	=22	=22	=22	=22
*	*tremolo	*	*	*	*	*	*	*	*	*	*	*	*	*	*	*	*	*	*	*	*	*	*
4r	16G</LL 16B-<	.	.	.	1ryy	.	.	1ryy	.	.	.	1ryy	.	.	.	1ryy	.	.	.	4.B-\	spiesz-	me!	.
.	16e-X</	.	.	.	.	.	.	.	.	.	.	.	.	.	.	.	.	.	.	.	.	.	.
.	16G</ 16B-<	.	.	.	.	.	.	.	.	.	.	.	.	.	.	.	.	.	.	.	.	.	.
.	16e-</	.	.	.	.	.	.	.	.	.	.	.	.	.	.	.	.	.	.	.	.	.	.
(>8.GG^>\L	16G</ 16B-<	.	.	.	.	.	.	.	.	.	.	.	.	.	.	.	.	.	.	.	.	.	.
.	16e-X</	.	.	.	.	.	.	.	.	.	.	.	.	.	.	.	.	.	.	.	.	.	.
.	16G</ 16B-<	.	.	.	.	.	.	.	.	.	.	.	.	.	.	.	.	.	.	8B-\	-cie	scen-	.
16AA\Jk	16e-X</JJ	.	.	.	.	.	.	.	.	.	.	.	.	.	.	.	.	.	.	.	.	.	.
8BB-\)	16G</LL 16B-<	.	.	.	.	.	.	.	.	.	.	.	.	.	.	.	.	.	.	4.B-\	do	-de-	.
.	16e-X</	.	.	.	.	.	.	.	.	.	.	.	.	.	.	.	.	.	.	.	.	.	.
8r	16G</ 16B-<	.	.	.	.	.	.	.	.	.	.	.	.	.	.	.	.	.	.	.	.	.	.
.	16e-X</	.	.	.	.	.	.	.	.	.	.	.	.	.	.	.	.	.	.	.	.	.	.
4r	16G</ 16B-<	.	.	.	.	.	.	.	.	.	.	.	.	.	.	.	.	.	.	.	.	.	.
.	16e-</	.	.	.	.	.	.	.	.	.	.	.	.	.	.	.	.	.	.	.	.	.	.
.	16G</ 16B-<	.	.	.	.	.	.	.	.	.	.	.	.	.	.	.	.	.	.	8B-\	gro-	-te a	.
.	16e-</JJ	.	.	.	.	.	.	.	.	.	.	.	.	.	.	.	.	.	.	.	.	.	.
!!LO:PB:g=original
=23	=23	=23	=23	=23	=23	=23	=23	=23	=23	=23	=23	=23	=23	=23	=23	=23	=23	=23	=23	=23	=23	=23	=23
4r	16F</LL 16A-X<	.	.	.	1r	.	.	1r	.	.	.	1r	.	.	.	1r	.	.	.	2Bn\	-ma-	frot-	.
.	16d</	.	.	.	.	.	.	.	.	.	.	.	.	.	.	.	.	.	.	.	.	.	.
.	16F</ 16A-<	.	.	.	.	.	.	.	.	.	.	.	.	.	.	.	.	.	.	.	.	.	.
.	16d</	.	.	.	.	.	.	.	.	.	.	.	.	.	.	.	.	.	.	.	.	.	.
(>8.FF^>\L	16F</ 16A-<	.	.	.	.	.	.	.	.	.	.	.	.	.	.	.	.	.	.	.	.	.	.
.	16d</	.	.	.	.	.	.	.	.	.	.	.	.	.	.	.	.	.	.	.	.	.	.
.	16F</ 16A-<	.	.	.	.	.	.	.	.	.	.	.	.	.	.	.	.	.	.	.	.	.	.
16GG\Jk	16d</JJ	.	.	.	.	.	.	.	.	.	.	.	.	.	.	.	.	.	.	.	.	.	.
8AA-X\)	16F</LL 16A-<	.	.	.	.	.	.	.	.	.	.	.	.	.	.	.	.	.	.	8B\	-dy,	-te,	.
.	16d</	.	.	.	.	.	.	.	.	.	.	.	.	.	.	.	.	.	.	.	.	.	.
8r	16F</ 16A-<	.	.	.	.	.	.	.	.	.	.	.	.	.	.	.	.	.	.	8r	.	.	.
.	16d</	.	.	.	.	.	.	.	.	.	.	.	.	.	.	.	.	.	.	.	.	.	.
4r	16F</ 16A-<	.	.	.	.	.	.	.	.	.	.	.	.	.	.	.	.	.	.	4B\	gro-	muo-	.
.	16d</	.	.	.	.	.	.	.	.	.	.	.	.	.	.	.	.	.	.	.	.	.	.
.	16F</ 16A-<	.	.	.	.	.	.	.	.	.	.	.	.	.	.	.	.	.	.	.	.	.	.
.	16d</JJ	.	.	.	.	.	.	.	.	.	.	.	.	.	.	.	.	.	.	.	.	.	.
=24	=24	=24	=24	=24	=24	=24	=24	=24	=24	=24	=24	=24	=24	=24	=24	=24	=24	=24	=24	=24	=24	=24	=24
4r	16F#X</LL 16A<	.	.	.	1r	.	.	1r	.	.	.	1r	.	.	.	1r	.	.	.	4.c\	-ma-	-ve-	.
.	16d</	.	.	.	.	.	.	.	.	.	.	.	.	.	.	.	.	.	.	.	.	.	.
.	16F#</ 16A<	.	.	.	.	.	.	.	.	.	.	.	.	.	.	.	.	.	.	.	.	.	.
.	16d</	.	.	.	.	.	.	.	.	.	.	.	.	.	.	.	.	.	.	.	.	.	.
(>8.EE#X^>\L	16F#</ 16A<	.	.	.	.	.	.	.	.	.	.	.	.	.	.	.	.	.	.	.	.	.	.
.	16d</	.	.	.	.	.	.	.	.	.	.	.	.	.	.	.	.	.	.	.	.	.	.
.	16F#</ 16A<	.	.	.	.	.	.	.	.	.	.	.	.	.	.	.	.	.	.	8c\	-da	-te-	.
16GG\Jk	16d</JJ	.	.	.	.	.	.	.	.	.	.	.	.	.	.	.	.	.	.	.	.	.	.
8AA\)	16F#</LL 16A<	.	.	.	.	.	.	.	.	.	.	.	.	.	.	.	.	.	.	4c\	niech	-vi al-	.
.	16d</	.	.	.	.	.	.	.	.	.	.	.	.	.	.	.	.	.	.	.	.	.	.
8r	16F#</ 16A<	.	.	.	.	.	.	.	.	.	.	.	.	.	.	.	.	.	.	.	.	.	.
.	16d</	.	.	.	.	.	.	.	.	.	.	.	.	.	.	.	.	.	.	.	.	.	.
4r	16F#</ 16A<	.	.	.	.	.	.	.	.	.	.	.	.	.	.	.	.	.	.	8c\	się	-la	.
.	16d</	.	.	.	.	.	.	.	.	.	.	.	.	.	.	.	.	.	.	.	.	.	.
.	16F#</ 16A<	.	.	.	.	.	.	.	.	.	.	.	.	.	.	.	.	.	.	8c\	tu	mia	.
.	16d</JJ	.	.	.	.	.	.	.	.	.	.	.	.	.	.	.	.	.	.	.	.	.	.
=25	=25	=25	=25	=25	=25	=25	=25	=25	=25	=25	=25	=25	=25	=25	=25	=25	=25	=25	=25	=25	=25	=25	=25
4r	16G</LL 16B-<	.	.	.	1r	.	.	1r	.	.	.	1r	.	.	.	1r	.	.	.	2c#X\	zbie-	vol-	.
.	16en</	.	.	.	.	.	.	.	.	.	.	.	.	.	.	.	.	.	.	.	.	.	.
.	16G</ 16B-<	.	.	.	.	.	.	.	.	.	.	.	.	.	.	.	.	.	.	.	.	.	.
.	16en</	.	.	.	.	.	.	.	.	.	.	.	.	.	.	.	.	.	.	.	.	.	.
(>8.GG^>\L	16G</ 16B-<	.	.	.	.	.	.	.	.	.	.	.	.	.	.	.	.	.	.	.	.	.	.
.	16en</	.	.	.	.	.	.	.	.	.	.	.	.	.	.	.	.	.	.	.	.	.	.
.	16G</ 16B-<	.	.	.	.	.	.	.	.	.	.	.	.	.	.	.	.	.	.	.	.	.	.
!	!LO:ACC:color=blue	!	!	!	!	!	!	!	!	!	!	!	!	!	!	!	!	!	!	!	!	!	!
16BB-\Jk	16en</JJ	.	.	.	.	.	.	.	.	.	.	.	.	.	.	.	.	.	.	.	.	.	.
8AA\)	16G</LL 16A<	.	.	.	.	.	.	.	.	.	.	.	.	.	.	.	.	.	.	4c#\	-rze!	-ta.	.
.	16e</	.	.	.	.	.	.	.	.	.	.	.	.	.	.	.	.	.	.	.	.	.	.
8r	16G</ 16A<	.	.	.	.	.	.	.	.	.	.	.	.	.	.	.	.	.	.	.	.	.	.
.	16e</	.	.	.	.	.	.	.	.	.	.	.	.	.	.	.	.	.	.	.	.	.	.
8AAA/	16G</ 16A<	.	.	.	.	.	.	.	.	.	.	.	.	.	.	.	.	.	.	4r	.	.	.
.	16e</	.	.	.	.	.	.	.	.	.	.	.	.	.	.	.	.	.	.	.	.	.	.
8r	16G</ 16A<	.	.	.	.	.	.	.	.	.	.	.	.	.	.	.	.	.	.	.	.	.	.
.	16e</JJ	.	.	.	.	.	.	.	.	.	.	.	.	.	.	.	.	.	.	.	.	.	.
=26	=26	=26	=26	=26	=26	=26	=26	=26	=26	=26	=26	=26	=26	=26	=26	=26	=26	=26	=26	=26	=26	=26	=26
4r	16F</LL 16A<	.	.	.	4r	.	.	4r	.	.	.	4r	.	.	.	4r	.	.	.	2.d\	O-	De-	.
.	16d</	.	.	.	.	.	.	.	.	.	.	.	.	.	.	.	.	.	.	.	.	.	.
.	16F</ 16A<	.	.	.	.	.	.	.	.	.	.	.	.	.	.	.	.	.	.	.	.	.	.
.	16d</	.	.	.	.	.	.	.	.	.	.	.	.	.	.	.	.	.	.	.	.	.	.
!	!	!	!	!	!	!	!LO:DY:a:B:t=ppp.	!	!	!	!LO:DY:a:B:t=ppp.	!	!	!	!LO:DY:a:B:t=ppp.	!	!	!	!LO:DY:a:B:t=ppp.	!	!	!	!
8.DD\L (>8.D	16F</ 16A<	.	.	.	8.D\	ciem-	ppp	8.D/	ciem-	.	ppp	8.d/	ciem-	Nel	ppp	8.d/	cie-	.	ppp	.	.	.	.
.	16d</	.	.	.	.	.	.	.	.	.	.	.	.	.	.	.	.	.	.	.	.	.	.
.	16F</ 16A<	.	.	.	.	.	.	.	.	.	.	.	.	.	.	.	.	.	.	.	.	.	.
16EE\Jk 16E	16d</JJ	.	.	.	16E\	-[no	.	16E/	-[no	.	.	16e/	-[no	si-	.	16e/	-mno	.	.	.	.	.	.
8FF\) 8F	16A</LL	.	.	.	8F\	wszę-	.	8F/	wszę-	.	.	8f/	wszę-	-len-	.	8f/	wszę-	.	.	.	.	.	.
.	16d</	.	.	.	.	.	.	.	.	.	.	.	.	.	.	.	.	.	.	.	.	.	.
8r	16A</	.	.	.	8r	.	.	8r	.	.	.	8r	.	.	.	8r	.	.	.	.	.	.	.
.	16d</	.	.	.	.	.	.	.	.	.	.	.	.	.	.	.	.	.	.	.	.	.	.
8FF\ 8F	16A</	.	.	.	8F\	-dzie	.	8F/	-dzie	.	.	8f/	-dzie	-te	.	8f/	-dzie	.	.	4d\	-to	-gli e-	.
.	16d</	.	.	.	.	.	.	.	.	.	.	.	.	.	.	.	.	.	.	.	.	.	.
8r	16A</	.	.	.	8r	.	.	8r	.	.	.	8r	.	.	.	8r	.	.	.	.	.	.	.
.	16d</JJ	.	.	.	.	.	.	.	.	.	.	.	.	.	.	.	.	.	.	.	.	.	.
!!LO:LB:g=original
=27	=27	=27	=27	=27	=27	=27	=27	=27	=27	=27	=27	=27	=27	=27	=27	=27	=27	=27	=27	=27	=27	=27	=27
4r	16A</LL 16d<	.	.	.	4r	.	.	4r	.	.	.	4r	.	.	.	4r	.	.	.	2.A\	ob-	-stin-	.
.	16e</	.	.	.	.	.	.	.	.	.	.	.	.	.	.	.	.	.	.	.	.	.	.
.	16A</ 16d<	.	.	.	.	.	.	.	.	.	.	.	.	.	.	.	.	.	.	.	.	.	.
.	16e</	.	.	.	.	.	.	.	.	.	.	.	.	.	.	.	.	.	.	.	.	.	.
(>8.GG\L 8.G	16A</ 16d<	.	.	.	8.G\	głu-	.	8.G/	głu-	.	.	8.g/	głu-	te-	.	8.g/	głu-	.	.	.	.	.	.
.	16e</	.	.	.	.	.	.	.	.	.	.	.	.	.	.	.	.	.	.	.	.	.	.
.	16A</ 16d<	.	.	.	.	.	.	.	.	.	.	.	.	.	.	.	.	.	.	.	.	.	.
16FF\Jk 16F	16e</JJ	.	.	.	16F\	-cho	.	16F/	-cho	.	.	16f/	-cho	-ne-	.	16f/	-cho	.	.	.	.	.	.
8EE\) 8E	16G</LL 16A</	.	.	.	8E\	wszę-	.	8E/	wszę-	.	.	8e/	wszę-	-bro-	.	8e/	wszę-	.	.	.	.	.	.
.	16c#X</	.	.	.	.	.	.	.	.	.	.	.	.	.	.	.	.	.	.	.	.	.	.
8r	16G</ 16A</	.	.	.	8r	.	.	8r	.	.	.	8r	.	.	.	8r	.	.	.	.	.	.	.
.	16c#X</	.	.	.	.	.	.	.	.	.	.	.	.	.	.	.	.	.	.	.	.	.	.
8AA\	16G</ 16A</	.	.	.	8AA/	-dzie,	.	8A/	-dzie,	.	.	8A/ 8a	-dzie,	-re	.	8a/	-dzie,	.	.	4A\	-cho-	-ti	.
.	16c#X</	.	.	.	.	.	.	.	.	.	.	.	.	.	.	.	.	.	.	.	.	.	.
8r	16G</ 16A</	.	.	.	8r	.	.	8r	.	.	.	8r	.	.	.	8r	.	.	.	.	.	.	.
.	16c#X</JJ	.	.	.	.	.	.	.	.	.	.	.	.	.	.	.	.	.	.	.	.	.	.
=28	=28	=28	=28	=28	=28	=28	=28	=28	=28	=28	=28	=28	=28	=28	=28	=28	=28	=28	=28	=28	=28	=28	=28
4r	16F</LL 16A</	.	.	.	4r	.	.	4r	.	.	.	4r	.	.	.	4r	.	.	.	2.d\	-dzi-	que-	.
.	16d</	.	.	.	.	.	.	.	.	.	.	.	.	.	.	.	.	.	.	.	.	.	.
.	16F</ 16A</	.	.	.	.	.	.	.	.	.	.	.	.	.	.	.	.	.	.	.	.	.	.
.	16d</	.	.	.	.	.	.	.	.	.	.	.	.	.	.	.	.	.	.	.	.	.	.
(>8.DD\L 8.D	16F</ 16A</	.	.	.	8.D\	cie-	.	8.D/	cie-	.	.	8.d/	cie-	nel	.	8.d/	cie-	.	.	.	.	.	.
.	16d</	.	.	.	.	.	.	.	.	.	.	.	.	.	.	.	.	.	.	.	.	.	.
.	16F</ 16A</	.	.	.	.	.	.	.	.	.	.	.	.	.	.	.	.	.	.	.	.	.	.
16EE\Jk 16E	16d</JJ	.	.	.	16E\	-mno	.	16E/	-mno	.	.	16e/	-mno	si-	.	16e/	-mno	.	.	.	.	.	.
8FF\) 8F	16A</LL	.	.	.	8F\	wszę-	.	8F/	wszę-	.	.	8f/	wszę-	-len-	.	8f/	wszę-	.	.	.	.	.	.
.	16d</	.	.	.	.	.	.	.	.	.	.	.	.	.	.	.	.	.	.	.	.	.	.
8r	16A</	.	.	.	8r	.	.	8r	.	.	.	8r	.	.	.	8r	.	.	.	.	.	.	.
.	16d</	.	.	.	.	.	.	.	.	.	.	.	.	.	.	.	.	.	.	.	.	.	.
8DD\ 8D	16A</	.	.	.	8D\	-dzie...	.	8D/	-dzie...	.	.	8d/	-dzie...	-te	.	8d/	-dzie...	.	.	4d\	-my	-sta	.
.	16d</	.	.	.	.	.	.	.	.	.	.	.	.	.	.	.	.	.	.	.	.	.	.
8r	16A</	.	.	.	8r	.	.	8r	.	.	.	8r	.	.	.	8r	.	.	.	.	.	.	.
.	16d</JJ	.	.	.	.	.	.	.	.	.	.	.	.	.	.	.	.	.	.	.	.	.	.
=29	=29	=29	=29	=29	=29	=29	=29	=29	=29	=29	=29	=29	=29	=29	=29	=29	=29	=29	=29	=29	=29	=29	=29
4r	16E</LL 16A</	.	.	.	4r	.	.	4r	.	.	.	4r	.	.	.	4r	.	.	.	2A\	Dzia-	not-	.
.	16e</	.	.	.	.	.	.	.	.	.	.	.	.	.	.	.	.	.	.	.	.	.	.
.	16E</ 16A</	.	.	.	.	.	.	.	.	.	.	.	.	.	.	.	.	.	.	.	.	.	.
.	16e</	.	.	.	.	.	.	.	.	.	.	.	.	.	.	.	.	.	.	.	.	.	.
8.CC#X/L 8.C#X	16E</ 16A</	.	.	.	8.C#X/	głu-	.	8.C#X/	głu-	.	.	8.c#X/	głu-	te-	.	8.c#X/	głu-	.	.	.	.	.	.
.	16e</	.	.	.	.	.	.	.	.	.	.	.	.	.	.	.	.	.	.	.	.	.	.
.	16E</ 16A</	.	.	.	.	.	.	.	.	.	.	.	.	.	.	.	.	.	.	.	.	.	.
16BBBn/Jk 16BBn	16e</JJ	.	.	.	16BBn/	-cho	.	16E/	-cho	.	.	16Bn/	-cho	-ne-	.	16e/	-cho	.	.	.	.	.	.
8AAA/ 8AA	8A</	.	.	.	8AA/	wszę]-	.	8A/	wszę]-	.	.	8A/	wszę]-	-bro-	.	8a/	wszę-	.	.	8A\	-dy!	-te,	.
8r	8r	.	.	.	8r	.	.	8r	.	.	.	8r	.	.	.	8r	.	.	.	8r	.	.	.
!LO:TX:b:t=V&colon;S&colon;	!	!	!	!	!	!	!	!	!	!	!	!	!	!	!	!	!	!	!	!	!	!	!
4r	4r	.	.	.	8AA/	-dzie.	.	8AA/	-dzie.	.	.	8A/	-dzie.	-re....	.	8A/	-dzie.	.	.	8r	.	.	.
!	!	!	!	!	!	!	!	!	!	!	!	!	!	!	!	!	!	!	!	!	!	!	!LO:DY:a:rj:t=f.
.	.	.	.	.	8r	.	.	8r	.	.	.	8r	.	.	.	8r	.	.	.	8A\	Zstę-	qui	f
!!LO:PB:g=original
=30	=30	=30	=30	=30	=30	=30	=30	=30	=30	=30	=30	=30	=30	=30	=30	=30	=30	=30	=30	=30	=30	=30	=30
*^	*	*	*	*	*	*	*	*	*	*	*	*	*	*	*	*	*	*	*	*	*	*	*
!	!	!	!	!	!LO:DY:rj:t=f.	!	!	!	!	!	!	!	!	!	!	!	!	!	!	!	!	!	!	!LO:DY:b:rj:t=f.
2ryy	2BBB-/ 2FF	2F</ 2B-< 2d	.	.	f	1r	.	.	1r	.	.	.	1r	.	.	.	1r	.	.	.	4.B-\	-puj-	l'a-	f
.	.	.	.	.	.	.	.	.	.	.	.	.	.	.	.	.	.	.	.	.	8B-\	-cie	-ni-	.
*v	*v	*	*	*	*	*	*	*	*	*	*	*	*	*	*	*	*	*	*	*	*	*	*	*
*8ba	*	*	*	*	*	*	*	*	*	*	*	*	*	*	*	*	*	*	*	*	*	*	*
*^	*	*	*	*	*	*	*	*	*	*	*	*	*	*	*	*	*	*	*	*	*	*	*
4AA/ 4C	2FFF\ 2FF	2f/	.	.	.	.	.	.	.	.	.	.	.	.	.	.	.	.	.	.	4c\	w Swię-	-me	.
*X8ba	*	*	*	*	*	*	*	*	*	*	*	*	*	*	*	*	*	*	*	*	*	*	*	*
8.G/L 8.B-	.	.	.	.	.	.	.	.	.	.	.	.	.	.	.	.	.	.	.	.	8.B-\	-ty	con-	.
16A/Jk 16c	.	.	.	.	.	.	.	.	.	.	.	.	.	.	.	.	.	.	.	.	16c\	przy-	-vi-	.
*v	*v	*	*	*	*	*	*	*	*	*	*	*	*	*	*	*	*	*	*	*	*	*	*	*
=31	=31	=31	=31	=31	=31	=31	=31	=31	=31	=31	=31	=31	=31	=31	=31	=31	=31	=31	=31	=31	=31	=31	=31
*tremolo	*	*	*	*	*	*	*	*	*	*	*	*	*	*	*	*	*	*	*	*	*	*	*
16BBB-/LL	4.F</ 4.B-< 4.d^^>	.	.	.	1r	.	.	1r	.	.	.	1r	.	.	.	1r	.	.	.	1d	-by-	-tia-	.
16BB-/	.	.	.	.	.	.	.	.	.	.	.	.	.	.	.	.	.	.	.	.	.	.	.
16BBB-/	.	.	.	.	.	.	.	.	.	.	.	.	.	.	.	.	.	.	.	.	.	.	.
16BB-/	.	.	.	.	.	.	.	.	.	.	.	.	.	.	.	.	.	.	.	.	.	.	.
16BBB-/	.	.	.	.	.	.	.	.	.	.	.	.	.	.	.	.	.	.	.	.	.	.	.
16BB-/	.	.	.	.	.	.	.	.	.	.	.	.	.	.	.	.	.	.	.	.	.	.	.
16BBB-/	8B-/ 8d 8f	.	.	.	.	.	.	.	.	.	.	.	.	.	.	.	.	.	.	.	.	.	.
16BB-/	.	.	.	.	.	.	.	.	.	.	.	.	.	.	.	.	.	.	.	.	.	.	.
16BBB-/	8d\L 8f 8b-^^>	.	.	<	.	.	.	.	.	.	.	.	.	.	.	.	.	.	.	.	.	.	.
16BB-/	.	.	.	.	.	.	.	.	.	.	.	.	.	.	.	.	.	.	.	.	.	.	.
16BBB-/	8f\ 8b- 8dd^^>	.	.	.	.	.	.	.	.	.	.	.	.	.	.	.	.	.	.	.	.	.	.
16BB-/JJ	.	.	.	.	.	.	.	.	.	.	.	.	.	.	.	.	.	.	.	.	.	.	.
16AAA/LL	8b-\ 8dd 8ff^^>	.	.	.	.	.	.	.	.	.	.	.	.	.	.	.	.	.	.	.	.	.	.
16AA/	.	.	.	.	.	.	.	.	.	.	.	.	.	.	.	.	.	.	.	.	.	.	.
16AAA/	8dd\J 8ff 8bb-^^>	.	.	.	.	.	.	.	.	.	.	.	.	.	.	.	.	.	.	.	.	.	.
16AA/JJ	.	.	.	[	.	.	.	.	.	.	.	.	.	.	.	.	.	.	.	.	.	.	.
*Xtremolo	*	*	*	*	*	*	*	*	*	*	*	*	*	*	*	*	*	*	*	*	*	*	*
=32	=32	=32	=32	=32	=32	=32	=32	=32	=32	=32	=32	=32	=32	=32	=32	=32	=32	=32	=32	=32	=32	=32	=32
!LO:TX:a:t=Tempo 1mo.:note=przekreślone na niebiesko	!	!	!	!	!	!	!	!	!	!	!	!	!	!	!	!	!	!	!	!LO:TX:a:t=Tempo 1mo.:note=przekreślone na niebiesko	!	!	!
8GGG/ 8GG^^>	8dd\ 8bb- 8ddd^^>	.	.	.	1r	.	.	1r	.	.	.	1r	.	.	.	1r	.	.	.	4D\	-tek;	-mo	.
8r	8r	.	.	.	.	.	.	.	.	.	.	.	.	.	.	.	.	.	.	.	.	.	.
4r	4r	.	.	.	.	.	.	.	.	.	.	.	.	.	.	.	.	.	.	4r	.	.	.
2r	2r	.	.	.	.	.	.	.	.	.	.	.	.	.	.	.	.	.	.	4r	.	.	.
!	!	!	!	!	!	!	!	!	!	!	!	!	!	!	!	!	!	!	!	!LO:TX:a:t=dolce.	!	!	!LO:DY:a
.	.	.	.	.	.	.	.	.	.	.	.	.	.	.	.	.	.	.	.	8D\	jest	L'e-	p
.	.	.	.	.	.	.	.	.	.	.	.	.	.	.	.	.	.	.	.	8D\	jał-	-le-	.
!!LO:LB:g=original
=33	=33	=33	=33	=33	=33	=33	=33	=33	=33	=33	=33	=33	=33	=33	=33	=33	=33	=33	=33	=33	=33	=33	=33
*k[f#c#]	*k[f#c#]	*	*	*	*k[f#c#]	*	*	*k[f#c#]	*	*	*	*k[f#c#]	*	*	*	*k[f#c#]	*	*	*	*k[f#c#]	*	*	*
*	*^	*	*	*	*	*	*	*	*	*	*	*	*	*	*	*	*	*	*	*	*	*	*
!	!LO:TX:b:t=Un poco più lento:color=blue	!	!	!	!LO:DY:rj:t=p.	!	!	!	!	!	!	!	!	!	!	!	!	!	!	!	!	!	!	!
(<1FF#	(>2a/	1d [<1f#	.	.	p	1ryy	.	.	1ryy	.	.	.	1ryy	.	.	.	1ryy	.	.	.	4.A\	-muż-	-mo-	.
.	.	.	.	.	.	.	.	.	.	.	.	.	.	.	.	.	.	.	.	.	8D\	-na,	-si-	.
.	2a#X/	.	.	.	.	.	.	.	.	.	.	.	.	.	.	.	.	.	.	.	4.A#X\	są	-na i	.
.	.	.	.	.	.	.	.	.	.	.	.	.	.	.	.	.	.	.	.	.	8D\	pa-	rae-	.
=34	=34	=34	=34	=34	=34	=34	=34	=34	=34	=34	=34	=34	=34	=34	=34	=34	=34	=34	=34	=34	=34	=34	=34	=34
*	*	*2\right	*	*	*	*	*	*	*	*	*	*	*	*	*	*	*	*	*	*	*	*	*	*
4.GG/	1d 1b	2f#\]	.	.	.	1ryy	.	.	1ryy	.	.	.	1ryy	.	.	.	1ryy	.	.	.	2B\	-cie-	-col-	.
8DD/	.	.	.	.	.	.	.	.	.	.	.	.	.	.	.	.	.	.	.	.	.	.	.	.
4.GG/	.	2fn\	.	.	.	.	.	.	.	.	.	.	.	.	.	.	.	.	.	.	8B\	-rze,	-ta,	.
.	.	.	.	.	.	.	.	.	.	.	.	.	.	.	.	.	.	.	.	.	8r	.	.	.
.	.	.	.	.	.	.	.	.	.	.	.	.	.	.	.	.	.	.	.	.	8c#\	i	ci-	.
8DD/	.	.	.	.	.	.	.	.	.	.	.	.	.	.	.	.	.	.	.	.	8d\	je-	-bo e	.
*	*v	*v	*	*	*	*	*	*	*	*	*	*	*	*	*	*	*	*	*	*	*	*	*	*
=35	=35	=35	=35	=35	=35	=35	=35	=35	=35	=35	=35	=35	=35	=35	=35	=35	=35	=35	=35	=35	=35	=35	=35
2GG/	1d 1e 1b	.	.	.	1ryy	.	.	1ryy	.	.	.	1ryy	.	.	.	1ryy	.	.	.	4.e\	-dze-	pre-	.
.	.	.	.	.	.	.	.	.	.	.	.	.	.	.	.	.	.	.	.	8B\	-nie	-ce of-	.
2GG#X/	.	.	.	.	.	.	.	.	.	.	.	.	.	.	.	.	.	.	.	4.e\	i	-frir	.
.	.	.	.	.	.	.	.	.	.	.	.	.	.	.	.	.	.	.	.	8d\	na-	pos-	.
=36	=36	=36	=36	=36	=36	=36	=36	=36	=36	=36	=36	=36	=36	=36	=36	=36	=36	=36	=36	=36	=36	=36	=36
4.AA/	2.c#/) 2.e 2.cc#	.	.	.	1ryy	.	.	1ryy	.	.	.	1ryy	.	.	.	1ryy	.	.	.	2c#\	-pi-	-sia-	.
8E\	.	.	.	.	.	.	.	.	.	.	.	.	.	.	.	.	.	.	.	.	.	.	.
4A\	.	.	.	.	.	.	.	.	.	.	.	.	.	.	.	.	.	.	.	8A\	-tek,	-mo.	.
.	.	.	.	.	.	.	.	.	.	.	.	.	.	.	.	.	.	.	.	8r	.	.	.
4A#X\)	4e/ 4g 4cc#	.	.	.	.	.	.	.	.	.	.	.	.	.	.	.	.	.	.	8.A#X\	jest	l'e-	.
.	.	.	.	.	.	.	.	.	.	.	.	.	.	.	.	.	.	.	.	16A#\	jał-	-le-	.
!!LO:LB:g=original
=37	=37	=37	=37	=37	=37	=37	=37	=37	=37	=37	=37	=37	=37	=37	=37	=37	=37	=37	=37	=37	=37	=37	=37
*	*^	*	*	*	*	*	*	*	*	*	*	*	*	*	*	*	*	*	*	*^	*	*	*
(>2c#\	[<2f#/ 2a#X (>2ee	2.ryy	.	.	.	1ryy	.	.	1ryy	.	.	.	1ryy	.	.	.	1ryy	.	.	.	2c#\	4.c#\@	-muż	mo-	.
.	.	.	.	.	.	.	.	.	.	.	.	.	.	.	.	.	.	.	.	.	.	8c#\@	.	-si-	.
8B\)	8f#/] 8b 8dd)	.	.	.	.	.	.	.	.	.	.	.	.	.	.	.	.	.	.	.	8B\	2ryy	-na,	-na	.
8r	8r	.	.	.	.	.	.	.	.	.	.	.	.	.	.	.	.	.	.	.	8r	.	.	.	.
!	!LO:ACC:color=gray	!	!	!	!	!	!	!	!	!	!	!	!	!	!	!	!	!	!	!	!	!	!	!	!
4F#'>\	8.an/L	4d\	.	.	.	.	.	.	.	.	.	.	.	.	.	.	.	.	.	.	8.F#\	.	są	è	.
.	16a/Jk	.	.	.	.	.	.	.	.	.	.	.	.	.	.	.	.	.	.	.	16F#\	.	pa-	rac-	.
*	*	*	*	*	*	*	*	*	*	*	*	*	*	*	*	*	*	*	*	*	*v	*v	*	*	*
=38	=38	=38	=38	=38	=38	=38	=38	=38	=38	=38	=38	=38	=38	=38	=38	=38	=38	=38	=38	=38	=38	=38	=38	=38
(>2A\	(<2d#X/ 2f# (>2ccn	2.ryy	.	.	.	1ryy	.	.	1ryy	.	.	.	1ryy	.	.	.	1ryy	.	.	.	2A\	-cie-	-col-	.
8G\)	8e/) 8b)	.	.	.	.	.	.	.	.	.	.	.	.	.	.	.	.	.	.	.	8G\	-rze	-ta	.
8r	8r	.	.	.	.	.	.	.	.	.	.	.	.	.	.	.	.	.	.	.	8r	.	.	.
4D#X\	8.f#/L	4cn\	.	.	.	.	.	.	.	.	.	.	.	.	.	.	.	.	.	.	8.D#X\	i	ci-	.
.	16f#/Jk 16a	.	.	.	.	.	.	.	.	.	.	.	.	.	.	.	.	.	.	.	16D#\	je-	-bo e	.
=39	=39	=39	=39	=39	=39	=39	=39	=39	=39	=39	=39	=39	=39	=39	=39	=39	=39	=39	=39	=39	=39	=39	=39	=39
2E\	4f#/ (>4a	2B\	.	.	.	1ryy	.	.	1ryy	.	.	.	1ryy	.	.	.	1ryy	.	.	.	4F#\	-dze-	pre-	.
.	4e/ 4g	.	.	.	.	.	.	.	.	.	.	.	.	.	.	.	.	.	.	.	4E\	-nie	-ce of-	.
2AA\	4A</ 4c# 4e	2ryy	.	.	.	.	.	.	.	.	.	.	.	.	.	.	.	.	.	.	4.G\	i	-frir	.
.	4G</ 4A 4c#)	.	.	.	.	.	.	.	.	.	.	.	.	.	.	.	.	.	.	.	.	.	.	.
.	.	.	.	.	.	.	.	.	.	.	.	.	.	.	.	.	.	.	.	.	8C#/	na-	pos-	.
*	*v	*v	*	*	*	*	*	*	*	*	*	*	*	*	*	*	*	*	*	*	*	*	*	*
=40	=40	=40	=40	=40	=40	=40	=40	=40	=40	=40	=40	=40	=40	=40	=40	=40	=40	=40	=40	=40	=40	=40	=40
!	!LO:TX:a:t=Piu mosso.	!	!	!	!	!	!	!	!	!	!	!	!	!	!	!	!	!	!	!	!	!	!
4D\	2F#</ 2A< 2d	.	.	.	1ryy	.	.	1ryy	.	.	.	1ryy	.	.	.	1ryy	.	.	.	2D\	-pi-	-sia-	.
4r	.	.	.	.	.	.	.	.	.	.	.	.	.	.	.	.	.	.	.	.	.	.	.
(>4..GG\	2G</ 2B-X< 2d	.	.	.	.	.	.	.	.	.	.	.	.	.	.	.	.	.	.	4D\	-tek.	-mo.	.
.	.	.	.	.	.	.	.	.	.	.	.	.	.	.	.	.	.	.	.	4r	.	.	.
16AA\	.	.	.	.	.	.	.	.	.	.	.	.	.	.	.	.	.	.	.	.	.	.	.
!!LO:LB:g=original
=41	=41	=41	=41	=41	=41	=41	=41	=41	=41	=41	=41	=41	=41	=41	=41	=41	=41	=41	=41	=41	=41	=41	=41
!LO:TX:t=P:problem=łuk zaczyna się od góry, kończy od dołu	!	!	!	!	!	!	!	!	!	!	!	!	!	!	!	!	!	!	!	!	!	!	!
2BB-X\)	2Fn</ 2B-X< 2d	.	.	.	1ryy	.	.	1ryy	.	.	.	1ryy	.	.	.	1ryy	.	.	.	1r	.	.	.
2GG\	2G</ 2B-< 2d	.	.	.	.	.	.	.	.	.	.	.	.	.	.	.	.	.	.	.	.	.	.
=42	=42	=42	=42	=42	=42	=42	=42	=42	=42	=42	=42	=42	=42	=42	=42	=42	=42	=42	=42	=42	=42	=42	=42
1DD;< 1Fn 1A	1d;>	.	.	.	1ryy	.	.	1ryy	.	.	.	1ryy	.	.	.	1ryy	.	.	.	1r;>	.	.	.
!!LO:PB:g=original
==43	==43	==43	==43	==43	==43	==43	==43	==43	==43	==43	==43	==43	==43	==43	==43	==43	==43	==43	==43	==43	==43	==43	==43
*k[b-]	*k[b-]	*	*	*	*k[b-]	*	*	*k[b-]	*	*	*	*k[b-]	*	*	*	*k[b-]	*	*	*	*k[b-]	*	*	*
*	*8va	*	*	*	*	*	*	*	*	*	*	*	*	*	*	*	*	*	*	*	*	*	*
*clefG2	*	*	*	*	*	*	*	*	*	*	*	*	*	*	*	*	*	*	*	*	*	*	*
!LO:TX:a:t=P:problem=tekst podpisany w partii fortepianu	!	!	!	!LO:DY:rj:t=p.	!	!	!	!	!	!	!	!	!	!	!	!	!	!	!	!	!	!	!
(<4.f^</ 4.a-X	(>16bbn\LL	.	.	p	1ryy	.	.	1ryy	.	.	.	1ryy	.	.	.	1ryy	.	.	.	1ryy	.	.	.
.	16aa\	o	Si,	.	.	.	.	.	.	.	.	.	.	.	.	.	.	.	.	.	.	.	.
.	16gg#X\	tak!	co-	.	.	.	.	.	.	.	.	.	.	.	.	.	.	.	.	.	.	.	.
.	16aa\JJ	.	-si!	.	.	.	.	.	.	.	.	.	.	.	.	.	.	.	.	.	.	.	.
.	16aa#X\LL	o	.	.	.	.	.	.	.	.	.	.	.	.	.	.	.	.	.	.	.	.	.
.	16bb\	tak!	più	.	.	.	.	.	.	.	.	.	.	.	.	.	.	.	.	.	.	.	.
!LO:TX:b:t=|:problem	!	!	!	!	!	!	!	!	!	!	!	!	!	!	!	!	!	!	!	!	!	!	!
8e/ 8g/	16bb#X\	.	.	.	.	.	.	.	.	.	.	.	.	.	.	.	.	.	.	.	.	.	.
.	16ccc\JJ	.	.	.	.	.	.	.	.	.	.	.	.	.	.	.	.	.	.	.	.	.	.
!LO:TX:b:t=|:problem	!	!	!	!	!	!	!	!	!	!	!	!	!	!	!	!	!	!	!	!	!	!	!
8d/L 8f	16ddd\LL	.	in	.	.	.	.	.	.	.	.	.	.	.	.	.	.	.	.	.	.	.	.
.	16ddd#X\	da-	.	.	.	.	.	.	.	.	.	.	.	.	.	.	.	.	.	.	.	.	.
!LO:TX:b:t=|:problem	!	!	!	!	!	!	!	!	!	!	!	!	!	!	!	!	!	!	!	!	!	!	!
8c/ 8e	16eee\	-léj!	sui	.	.	.	.	.	.	.	.	.	.	.	.	.	.	.	.	.	.	.	.
.	16fff\JJ	.	pian	.	.	.	.	.	.	.	.	.	.	.	.	.	.	.	.	.	.	.	.
!LO:TX:b:t=|:problem	!	!	!	!	!	!	!	!	!	!	!	!	!	!	!	!	!	!	!	!	!	!	!
8B-/ 8d	16fff#X\LL	.	.	.	.	.	.	.	.	.	.	.	.	.	.	.	.	.	.	.	.	.	.
.	16ggg\	da-	.	.	.	.	.	.	.	.	.	.	.	.	.	.	.	.	.	.	.	.	.
!LO:TX:b:t=|:problem	!	!	!	!	!	!	!	!	!	!	!	!	!	!	!	!	!	!	!	!	!	!	!
8A/J 8c	16ggg#X\	-léj!	.	.	.	.	.	.	.	.	.	.	.	.	.	.	.	.	.	.	.	.	.
.	16aaa\JJ)	.	pia-	.	.	.	.	.	.	.	.	.	.	.	.	.	.	.	.	.	.	.	.
=44	=44	=44	=44	=44	=44	=44	=44	=44	=44	=44	=44	=44	=44	=44	=44	=44	=44	=44	=44	=44	=44	=44	=44
*	*^	*	*	*	*	*	*	*	*	*	*	*	*	*	*	*	*	*	*	*	*	*	*
8G#X/) 8Bn	8eee\ 8bbbn\	4ryy	.	-no!..	.	1ryy	.	.	1ryy	.	.	.	1ryy	.	.	.	1ryy	.	.	.	1ryy	.	.	.
8r	8rbb	.	.	.	.	.	.	.	.	.	.	.	.	.	.	.	.	.	.	.	.	.	.	.
!	!	!LO:TX:t=P:problem=diminuendolike accent	!	!	!	!	!	!	!	!	!	!	!	!	!	!	!	!	!	!	!	!	!	!
2B/ 2d 2f 2g#X	2fffn/	(>16ddd^<\LL	niech	.	.	.	.	.	.	.	.	.	.	.	.	.	.	.	.	.	.	.	.	.
.	.	16ccc#X\	.	ar-	.	.	.	.	.	.	.	.	.	.	.	.	.	.	.	.	.	.	.	.
.	.	16cccn\	się	-da,	.	.	.	.	.	.	.	.	.	.	.	.	.	.	.	.	.	.	.	.
.	.	16bbn\JJ)	.	.	.	.	.	.	.	.	.	.	.	.	.	.	.	.	.	.	.	.	.	.
!	!	!LO:TX:t=P:problem=diminuendolike accent	!	!	!	!	!	!	!	!	!	!	!	!	!	!	!	!	!	!	!	!	!	!
.	.	(>16ddd^<\LL	na	e	.	.	.	.	.	.	.	.	.	.	.	.	.	.	.	.	.	.	.	.
.	.	16ccc#X\	.	.	.	.	.	.	.	.	.	.	.	.	.	.	.	.	.	.	.	.	.	.
.	.	16cccn\	.	sva-	.	.	.	.	.	.	.	.	.	.	.	.	.	.	.	.	.	.	.	.
.	.	16bb\JJ)	.	.	.	.	.	.	.	.	.	.	.	.	.	.	.	.	.	.	.	.	.	.
!	!	!LO:TX:t=P:problem=diminuendolike accent	!	!	!	!	!	!	!	!	!	!	!	!	!	!	!	!	!	!	!	!	!	!
[<4d/ [<4f [>4g#X [>4bn	[>4fff/	(>16ddd^<\LL	po-	-ni-	.	.	.	.	.	.	.	.	.	.	.	.	.	.	.	.	.	.	.	.
.	.	16ccc#X\	.	.	.	.	.	.	.	.	.	.	.	.	.	.	.	.	.	.	.	.	.	.
.	.	16cccn\	-wie-	-sca	.	.	.	.	.	.	.	.	.	.	.	.	.	.	.	.	.	.	.	.
.	.	16bb\JJ)	-trzu	.	.	.	.	.	.	.	.	.	.	.	.	.	.	.	.	.	.	.	.	.
=45	=45	=45	=45	=45	=45	=45	=45	=45	=45	=45	=45	=45	=45	=45	=45	=45	=45	=45	=45	=45	=45	=45	=45	=45
!	!	!LO:TX:t=P:problem=diminuendolike accent	!	!	!	!	!	!	!	!	!	!	!	!	!	!	!	!	!	!	!	!	!	!
4d/] 4f] 4g#] 4b]	4fff/]	(>16ddd^<\LL	.	.	.	1ryy	.	.	1ryy	.	.	.	1ryy	.	.	.	1ryy	.	.	.	1ryy	.	.	.
.	.	16ccc#X\	.	lon-	.	.	.	.	.	.	.	.	.	.	.	.	.	.	.	.	.	.	.	.
.	.	16cccn\	spa-	.	.	.	.	.	.	.	.	.	.	.	.	.	.	.	.	.	.	.	.	.
.	.	16bb-\JJ)	.	-ta-	.	.	.	.	.	.	.	.	.	.	.	.	.	.	.	.	.	.	.	.
!	!	!LO:TX:t=P:problem=diminuendolike accent	!	!	!	!	!	!	!	!	!	!	!	!	!	!	!	!	!	!	!	!	!	!
[<4f\ [<4g#X [>4bn [>4dd	2fff/	(>16ddd^<\LL	-li.	-no!...	.	.	.	.	.	.	.	.	.	.	.	.	.	.	.	.	.	.	.	.
.	.	16ccc#X\	.	.	.	.	.	.	.	.	.	.	.	.	.	.	.	.	.	.	.	.	.	.
.	.	16cccn\	.	.	.	.	.	.	.	.	.	.	.	.	.	.	.	.	.	.	.	.	.	.
.	.	16bb-\JJ)	.	.	.	.	.	.	.	.	.	.	.	.	.	.	.	.	.	.	.	.	.	.
!	!	!LO:TX:t=P:problem=diminuendolike accent	!	!	!	!	!	!	!	!	!	!	!	!	!	!	!	!	!	!	!	!	!	!
8f\] 8g#] 8b] 8dd]	.	(>16ddd^<\LL	.	.	.	.	.	.	.	.	.	.	.	.	.	.	.	.	.	.	.	.	.	.
.	.	16ccc#X\	.	.	.	.	.	.	.	.	.	.	.	.	.	.	.	.	.	.	.	.	.	.
8r	.	16cccn\	.	.	.	.	.	.	.	.	.	.	.	.	.	.	.	.	.	.	.	.	.	.
.	.	16bb-\JJ)	.	.	.	.	.	.	.	.	.	.	.	.	.	.	.	.	.	.	.	.	.	.
*	*v	*v	*	*	*	*	*	*	*	*	*	*	*	*	*	*	*	*	*	*	*	*	*	*
*	*X8va	*	*	*	*	*	*	*	*	*	*	*	*	*	*	*	*	*	*	*	*	*	*
*	*^	*	*	*	*	*	*	*	*	*	*	*	*	*	*	*	*	*	*	*	*	*	*
4r;>	4r;>	4ryy	.	.	.	.	.	.	.	.	.	.	.	.	.	.	.	.	.	.	.	.	.	.
*	*v	*v	*	*	*	*	*	*	*	*	*	*	*	*	*	*	*	*	*	*	*	*	*	*
==	==	==	==	==	==	==	==	==	==	==	==	==	==	==	==	==	==	==	==	==	==	==	==
*-	*-	*-	*-	*-	*-	*-	*-	*-	*-	*-	*-	*-	*-	*-	*-	*-	*-	*-	*-	*-	*-	*-	*-
!!!system-decoration: [(g1)],[(g2)],[(g3)]
!!!RDF**kern: > = above
!!!RDF**kern: < = below
!!!RDF**kern: @ = marked note, color=red
!!!RDF**kern: N = linked
!!!ENC: Anastazja Marusiak
!!!END: 2021-09-10
!!!EED: Jędrzej Mróz
!!!ESR: 2021-10-21
